packages/core/src/svgs/tokens/branded/QASH.svg

<svg width="24" height="24" viewBox="0 0 24 24" fill="none" xmlns="http://www.w3.org/2000/svg">
<path d="M11.9999 2C9.34782 2 6.80427 3.05355 4.92892 4.92892C3.05355 6.80427 2 9.34783 2 11.9999C2 14.6521 3.05355 17.1957 4.92892 19.0709C6.80427 20.9464 9.34782 22 11.9999 22C14.652 22 17.1957 20.9464 19.0711 19.0709C20.9463 17.1957 22 14.6521 22 11.9999C22 9.34783 20.9463 6.80427 19.0711 4.92892C17.1957 3.05355 14.652 2 11.9999 2ZM21.4906 11.5912H20.6818V11.2638L21.4906 11.2543V11.5912ZM21.2818 9.84556L20.4819 9.95435L20.4362 9.61806L21.2361 9.50942L21.2818 9.84556ZM20.5912 7.70873L20.7362 8.02748L19.9906 8.35435L19.8543 8.0456L20.5912 7.70873ZM19.5818 6.18186L19.8093 6.43624L19.2 6.97248L18.9725 6.7181L19.5818 6.18186ZM18.4 4.90874L18.6543 5.13624L18.1274 5.74561L17.8637 5.52685L18.4 4.91812V4.90874ZM16.9811 3.7725L17.2638 3.95436L16.8274 4.63623L16.5455 4.45499L16.9811 3.7725ZM15.3725 2.97249L15.7 3.06373L15.4999 3.84499L15.1636 3.75437L15.3725 2.98186V2.97249ZM13.6 2.54562L13.9456 2.5725L13.8724 3.37249L13.5361 3.34561L13.6 2.54562ZM11.7812 2.32687H12.1087V3.14562H11.7724V2.32687H11.7812ZM10.2724 2.54562L10.3363 3.34561L9.99998 3.38187L9.93625 2.56312L10.2724 2.54562ZM8.49997 2.97249L8.70935 3.76373L8.38185 3.85437L8.17248 3.06373L8.49997 2.97249ZM6.89123 3.7725L7.33623 4.45437L7.04561 4.63623L6.60935 3.95499L6.89123 3.7725ZM5.48186 4.90874L6.00874 5.5181L5.75436 5.74561L5.22749 5.12686L5.48186 4.90874ZM4.29999 6.17248L4.89999 6.70935L4.68124 6.96373L4.07249 6.41811L4.29124 6.17248H4.29999ZM3.28124 7.71811L4.01874 8.0456L3.88124 8.35435L3.14562 8.0181L3.28187 7.70873L3.28124 7.71811ZM2.64562 9.50942L3.44561 9.61806L3.39062 9.95435L2.59062 9.84556L2.63624 9.50942H2.64562ZM2.39124 11.2543H3.2V11.5999L2.38125 11.5912V11.2543H2.39124ZM2.46375 13.1544L3.27249 13.0637L3.3 13.4087L2.5 13.4907L2.46375 13.1544ZM2.8275 14.8819L3.61812 14.6999L3.69999 15.0187L2.90874 15.2L2.8275 14.8724V14.8819ZM3.70874 16.9362L3.54562 16.6363L4.24562 16.2362L4.41811 16.5275L3.70874 16.9362ZM4.86373 18.3637L4.60875 18.1362L5.17249 17.5455L5.41812 17.7818L4.86373 18.3637ZM6.15436 19.5181L5.88187 19.3181L6.3456 18.6636L6.6181 18.8637L6.15436 19.5181ZM7.66372 20.5274L7.36373 20.3725L7.74498 19.6543L8.04498 19.8093L7.66372 20.5361V20.5274ZM9.33615 21.1636L9.00935 21.118L9.13621 20.3181L9.4725 20.3725L9.33615 21.1724V21.1636ZM10.8 21.445V20.6362H11.1362V21.4455L10.8 21.445ZM3.58124 11.9999C3.68004 9.8336 4.61016 7.78866 6.17817 6.29055C7.74616 4.79242 9.8314 3.95642 11.9999 3.95642C14.1686 3.95642 16.2537 4.79242 17.8217 6.29055C19.3897 7.78866 20.3198 9.8336 20.4187 11.9999C20.3198 14.1663 19.3897 16.2113 17.8217 17.7095C16.2537 19.2074 14.1686 20.0435 11.9999 20.0435C9.8314 20.0435 7.74616 19.2074 6.17817 17.7095C4.61016 16.2113 3.68004 14.1663 3.58124 11.9999ZM12.6638 21.5275H12.645L12.5725 20.7275L12.9088 20.6911H12.9274L12.9999 21.4999L12.6638 21.5275ZM14.4636 21.1456L14.3274 20.3543L14.6544 20.2911L14.7999 21.0912L14.4636 21.1456ZM16.1912 20.5544L15.9087 19.7912L16.2275 19.6818L16.4999 20.4362L16.1813 20.5549L16.1912 20.5544ZM17.718 19.6181L17.2181 18.9818L17.4818 18.7724L17.9819 19.4093L17.7093 19.6181H17.718ZM19.018 18.3456L18.4369 17.7818L18.6724 17.5455L19.2542 18.1093L19.018 18.3456ZM20.0818 16.9819L19.4275 16.4999L19.6274 16.2275L20.2818 16.7087L20.0818 16.9819ZM20.9456 15.3456L20.1817 15.0912L20.2999 14.7725L21.0637 15.0455L20.9449 15.3637L20.9456 15.3456ZM21.4269 13.5087L20.6093 13.4724L20.6362 13.1275L21.4455 13.1724L21.4269 13.5087Z" fill="#1347E8"/>
<path fill-rule="evenodd" clip-rule="evenodd" d="M12.6265 7.62448H11.3764C10.8792 7.62448 10.4023 7.82202 10.0507 8.17365C9.69908 8.52529 9.50148 9.00219 9.50148 9.49951V13.2495C9.50148 13.7467 9.69908 14.2236 10.0507 14.5752C10.4023 14.927 10.8792 15.1244 11.3764 15.1244H12.6265C13.1237 15.1244 13.6007 14.927 13.9523 14.5752C14.3039 14.2236 14.5015 13.7467 14.5015 13.2495V9.49951C14.5015 9.00219 14.3039 8.52529 13.9523 8.17365C13.6007 7.82202 13.1237 7.62448 12.6265 7.62448ZM11.3764 6.99948C10.7135 6.99948 10.0775 7.26287 9.60866 7.73171C9.13981 8.20055 8.87646 8.83644 8.87646 9.49951V13.2495C8.87646 13.9126 9.13981 14.5484 9.60866 15.0172C10.0775 15.4861 10.7135 15.7495 11.3764 15.7495H12.6265C13.2895 15.7495 13.9253 15.4861 14.3942 15.0172C14.863 14.5484 15.1264 13.9126 15.1264 13.2495V9.49951C15.1264 8.83644 14.863 8.20055 14.3942 7.73171C13.9253 7.26287 13.2895 6.99948 12.6265 6.99948H11.3764Z" fill="#1347E8"/>
<path d="M12.7132 13.9532C12.7427 13.9248 12.7777 13.9025 12.8159 13.8875C12.8541 13.8726 12.8949 13.8653 12.9359 13.866C12.9769 13.8669 13.0174 13.8758 13.055 13.8923C13.0925 13.9086 13.1267 13.9324 13.1551 13.962L14.97 15.8495C15.0276 15.9091 15.0589 15.9893 15.0573 16.0723C15.0557 16.1552 15.0213 16.234 14.9615 16.2917C14.9019 16.3491 14.8217 16.3806 14.7387 16.379C14.6559 16.3774 14.577 16.343 14.5194 16.2832L12.7045 14.3951C12.6759 14.3655 12.6536 14.3306 12.6387 14.2924C12.6237 14.2541 12.6164 14.2134 12.6173 14.1723C12.6181 14.1313 12.6269 14.0909 12.6434 14.0533C12.6598 14.0156 12.6836 13.9817 12.7132 13.9532Z" fill="#1347E8"/>
</svg>

<svg xmlns="http://www.w3.org/2000/svg" width="24" height="24" fill="none" viewBox="0 0 24 24">
    <path fill="#1347E8" d="M12 2a10 10 0 1 0 0 20 10 10 0 0 0 0-20m9.49 9.591h-.808v-.327l.809-.01zm-.208-1.745-.8.108-.046-.336.8-.109zm-.69-2.137.144.318-.745.327-.137-.308zm-1.01-1.527.227.254-.609.536-.227-.254zM18.4 4.909l.254.227-.527.61-.263-.22.536-.608zm-1.419-1.136.283.181-.437.682-.282-.181zm-1.609-.8.328.09-.2.782-.336-.09.209-.773zM13.6 2.545l.346.026-.074.8-.336-.026zm-1.819-.22h.328v.82h-.337v-.82zm-1.509.22.064.8-.336.036-.064-.819zM8.5 2.972l.21.792-.328.09-.21-.79zm-1.609.8.445.682-.29.182-.437-.681zM5.481 4.91l.528.61-.255.227-.527-.62zM4.3 6.172l.6.537-.219.255-.609-.546.22-.246zM3.281 7.718l.738.328-.138.308-.735-.336.136-.31zM2.646 9.51l.8.11-.055.335-.8-.108.045-.337zm-.255 1.745H3.2v.346l-.819-.009v-.337zm.073 1.9.808-.09.028.345-.8.082zm.364 1.728.79-.182.082.319-.791.181-.081-.328zm.88 2.054-.162-.3.7-.4.172.291zm1.156 1.428-.255-.228.563-.59.246.236zm1.29 1.154-.272-.2.464-.654.272.2zm1.51 1.01-.3-.155.381-.719.3.155-.381.727zm1.672.636-.327-.046.127-.8.337.054-.137.8zm1.464.281v-.809h.336v.81zM3.581 12a8.427 8.427 0 0 1 16.838 0A8.429 8.429 0 0 1 3.58 12m9.083 9.528h-.019l-.072-.8.336-.037h.018L13 21.5zm1.8-.382-.137-.792.327-.063.146.8zm1.727-.592-.282-.763.318-.11.273.755-.319.119zm1.527-.936-.5-.636.264-.21.5.637-.273.21zm1.3-1.272-.581-.564.235-.236.582.563zm1.064-1.364-.655-.482.2-.273.655.482zm.864-1.636-.764-.255.118-.318.764.273-.12.318zm.48-1.837-.817-.037.027-.344.81.044z"/>
    <path fill="#1347E8" fill-rule="evenodd" d="M12.627 7.624h-1.25A1.875 1.875 0 0 0 9.5 9.5v3.75a1.875 1.875 0 0 0 1.875 1.874h1.25a1.874 1.874 0 0 0 1.876-1.875V9.5a1.875 1.875 0 0 0-1.876-1.875M11.377 7a2.5 2.5 0 0 0-2.5 2.5v3.75a2.5 2.5 0 0 0 2.5 2.5h1.25a2.5 2.5 0 0 0 2.5-2.5V9.5a2.5 2.5 0 0 0-2.5-2.5z" clip-rule="evenodd"/>
    <path fill="#1347E8" d="M12.713 13.953a.313.313 0 0 1 .442.009l1.815 1.888a.312.312 0 0 1-.231.529.3.3 0 0 1-.22-.096l-1.815-1.888a.31.31 0 0 1-.06-.342.3.3 0 0 1 .07-.1"/>
</svg>
